icons/src/fluent/svg/send_24_filled.svg

<svg width="24" height="24" viewBox="0 0 24 24" fill="none" xmlns="http://www.w3.org/2000/svg">
<path d="M12.8147 12.1969L5.28344 13.4521C5.10705 13.4815 4.95979 13.6029 4.89723 13.7704L2.29933 20.7278C2.05066 21.3673 2.72008 21.9773 3.33375 21.6705L21.3337 12.6705C21.8865 12.3941 21.8865 11.6052 21.3337 11.3288L3.33375 2.32885C2.72008 2.02201 2.05066 2.63206 2.29933 3.2715L4.89723 10.2289C4.95979 10.3964 5.10705 10.5178 5.28344 10.5472L12.8147 11.8024C12.9236 11.8205 12.9972 11.9236 12.9791 12.0325C12.965 12.1168 12.899 12.1829 12.8147 12.1969Z" fill="#212121"/>
</svg>

<svg width="24" height="24" fill="none" viewBox="0 0 24 24" xmlns="http://www.w3.org/2000/svg"><path d="m12.815 12.197-7.532 1.256a.5.5 0 0 0-.386.318L2.3 20.728c-.248.64.421 1.25 1.035.943l18-9a.75.75 0 0 0 0-1.342l-18-9c-.614-.307-1.283.304-1.035.943l2.598 6.957a.5.5 0 0 0 .386.319l7.532 1.255a.2.2 0 0 1 0 .394Z" fill="#212121"/></svg>
